contributed-vectors/_8fit.svg

<svg xmlns="http://www.w3.org/2000/svg" xml:space="preserve" style="fill-rule:evenodd;clip-rule:evenodd" viewBox="0 0 192 192"><path d="M164.5 21.5c0-5.519-4.481-10-10-10h-133c-5.519 0-10 4.481-10 10v133c0 5.519 4.481 10 10 10h133c5.519 0 10-4.481 10-10v-133Z" style="fill:#fff;stroke:#fff;stroke-width:1px" transform="translate(8 8)"/><path d="M107.068 74.798c0-6.112-4.956-11.067-11.068-11.067-6.108 0-11.068 4.959-11.068 11.067 0 6.109 4.776 11.28 10.884 11.28.064 0 .064 0 0 0-6.108 0-10.884-5.171-10.884-11.28 0-6.108 4.96-11.067 11.068-11.067 6.112 0 11.068 4.955 11.068 11.067Z" style="fill:none;stroke:#4a4a4a;stroke-width:4px;stroke-linecap:round;stroke-linejoin:round;stroke-miterlimit:1.5" transform="rotate(32.338 96.156 74.753)"/><path d="M107.068 74.798c0-6.112-4.956-11.067-11.068-11.067-6.108 0-11.068 4.959-11.068 11.067 0 6.109 4.96 11.068 11.068 11.068a12.419 12.419 0 0 0 0 0c-6.108 0-11.068-4.959-11.068-11.068 0-6.108 4.96-11.067 11.068-11.067 6.112 0 11.068 4.955 11.068 11.067Z" style="fill:none;stroke:#4a4a4a;stroke-width:4px;stroke-linecap:round;stroke-linejoin:round;stroke-miterlimit:1.5" transform="rotate(-147.334 102.237 95.847)"/><path d="M107.068 74.798c0-6.112-4.956-11.067-11.068-11.067-6.108 0-11.068 4.959-11.068 11.067 0 6.109 4.96 11.068 11.068 11.068a12.419 12.419 0 0 0 0 0c-6.108 0-11.068-4.959-11.068-11.068 0-6.108 4.96-11.067 11.068-11.067 6.112 0 11.068 4.955 11.068 11.067Z" style="fill:none;stroke:#4a4a4a;stroke-width:2.29px;stroke-linecap:round;stroke-linejoin:round;stroke-miterlimit:1.5" transform="scale(1.7488) rotate(38.047 121.967 -.85)"/><path d="m110.99 86.937-24.18 24.021" style="fill:none;stroke:#4a4a4a;stroke-width:4px;stroke-linecap:round;stroke-linejoin:round;stroke-miterlimit:1.5" transform="translate(.212 -.232)"/><path d="M107.068 74.798c0-6.112-4.956-11.067-11.068-11.067-6.108 0-11.068 4.959-11.068 11.067 0 6.109 4.96 11.068 11.068 11.068a12.419 12.419 0 0 0 0 0c-6.108 0-11.068-4.959-11.068-11.068 0-6.108 4.96-11.067 11.068-11.067 6.112 0 11.068 4.955 11.068 11.067Z" style="fill:none;stroke:#4a4a4a;stroke-width:2.29px;stroke-linecap:round;stroke-linejoin:round;stroke-miterlimit:1.5" transform="rotate(-141.625 129.592 136.354) scale(1.74879)"/><path d="m80.954 104.916 24.145-23.988" style="fill:none;stroke:#4a4a4a;stroke-width:4px;stroke-linecap:round;stroke-linejoin:round;stroke-miterlimit:1.5" transform="translate(.212 -.232)"/></svg>

<?xml version="1.0" encoding="UTF-8" standalone="no"?>
<!DOCTYPE svg PUBLIC "-//W3C//DTD SVG 1.1//EN" "http://www.w3.org/Graphics/SVG/1.1/DTD/svg11.dtd">
<svg width="100%" height="100%" viewBox="0 0 192 192" version="1.1" xmlns="http://www.w3.org/2000/svg" xmlns:xlink="http://www.w3.org/1999/xlink" xml:space="preserve" xmlns:serif="http://www.serif.com/" style="fill-rule:evenodd;clip-rule:evenodd;">
    <g id="Layer1">
        <g transform="matrix(1,0,0,1,8,8)">
            <path d="M164.5,21.5C164.5,15.981 160.019,11.5 154.5,11.5L21.5,11.5C15.981,11.5 11.5,15.981 11.5,21.5L11.5,154.5C11.5,160.019 15.981,164.5 21.5,164.5L154.5,164.5C160.019,164.5 164.5,160.019 164.5,154.5L164.5,21.5Z" style="fill:white;stroke:white;stroke-width:1px;"/>
        </g>
        <g>
            <g transform="matrix(0.844904,0.534918,-0.534918,0.844904,54.9001,-39.8415)">
                <path d="M107.068,74.798C107.068,68.686 102.112,63.731 96,63.731C89.892,63.731 84.932,68.69 84.932,74.798C84.932,80.907 89.708,86.078 95.816,86.078C95.88,86.078 95.88,86.078 95.816,86.078C89.708,86.078 84.932,80.907 84.932,74.798C84.932,68.69 89.892,63.731 96,63.731C102.112,63.731 107.068,68.686 107.068,74.798Z" style="fill:none;stroke:rgb(74,74,74);stroke-width:4px;stroke-linecap:round;stroke-linejoin:round;stroke-miterlimit:1.5;"/>
            </g>
            <g transform="matrix(-0.841827,-0.539748,0.539748,-0.841827,136.57,231.715)">
                <path d="M107.068,74.798C107.068,68.686 102.112,63.731 96,63.731C89.892,63.731 84.932,68.69 84.932,74.798C84.932,80.907 89.892,85.866 96,85.866C96.064,85.866 96.129,85.865 96.193,85.864C96.129,85.865 96.064,85.866 96,85.866C89.892,85.866 84.932,80.907 84.932,74.798C84.932,68.69 89.892,63.731 96,63.731C102.112,63.731 107.068,68.686 107.068,74.798Z" style="fill:none;stroke:rgb(74,74,74);stroke-width:4px;stroke-linecap:round;stroke-linejoin:round;stroke-miterlimit:1.5;"/>
            </g>
            <g transform="matrix(1.37719,1.07779,-1.07779,1.37719,44.4064,-131.771)">
                <path d="M107.068,74.798C107.068,68.686 102.112,63.731 96,63.731C89.892,63.731 84.932,68.69 84.932,74.798C84.932,80.907 89.892,85.866 96,85.866C96.064,85.866 96.129,85.865 96.193,85.864C96.129,85.865 96.064,85.866 96,85.866C89.892,85.866 84.932,80.907 84.932,74.798C84.932,68.69 89.892,63.731 96,63.731C102.112,63.731 107.068,68.686 107.068,74.798Z" style="fill:none;stroke:rgb(74,74,74);stroke-width:2.29px;stroke-linecap:round;stroke-linejoin:round;stroke-miterlimit:1.5;"/>
            </g>
            <g transform="matrix(1,0,0,1,0.211548,-0.232457)">
                <path d="M110.99,86.937L86.81,110.958" style="fill:none;stroke:rgb(74,74,74);stroke-width:4px;stroke-linecap:round;stroke-linejoin:round;stroke-miterlimit:1.5;"/>
            </g>
            <g transform="matrix(-1.37099,-1.08566,1.08566,-1.37099,146.538,323.702)">
                <path d="M107.068,74.798C107.068,68.686 102.112,63.731 96,63.731C89.892,63.731 84.932,68.69 84.932,74.798C84.932,80.907 89.892,85.866 96,85.866C96.064,85.866 96.129,85.865 96.193,85.864C96.129,85.865 96.064,85.866 96,85.866C89.892,85.866 84.932,80.907 84.932,74.798C84.932,68.69 89.892,63.731 96,63.731C102.112,63.731 107.068,68.686 107.068,74.798Z" style="fill:none;stroke:rgb(74,74,74);stroke-width:2.29px;stroke-linecap:round;stroke-linejoin:round;stroke-miterlimit:1.5;"/>
            </g>
            <g transform="matrix(1,0,0,1,0.211548,-0.232457)">
                <path d="M80.954,104.916L105.099,80.928" style="fill:none;stroke:rgb(74,74,74);stroke-width:4px;stroke-linecap:round;stroke-linejoin:round;stroke-miterlimit:1.5;"/>
            </g>
        </g>
    </g>
</svg>
